vsi/cloud-upload_light.svg

<svg viewBox="0 0 16 16" fill="none" xmlns="http://www.w3.org/2000/svg" height="1em" width="1em">
  <path fill-rule="evenodd" clip-rule="evenodd" d="M11.9567 6H12.0066C12.8005 6 13.5619 6.31607 14.1233 6.87868C14.6847 7.44129 15.0001 8.20435 15.0001 9C15.0001 9.79565 14.6847 10.5587 14.1233 11.1213C13.5619 11.6839 12.8005 12 12.0066 12H10.0109V11H12.0066C12.5359 11 13.0435 10.7893 13.4177 10.4142C13.792 10.0391 14.0023 9.53044 14.0023 9C14.0023 8.46957 13.792 7.96086 13.4177 7.58579C13.0435 7.21072 12.5359 7 12.0066 7H11.0926L10.9688 6.143C10.8939 5.60541 10.6457 5.10711 10.2619 4.72407C9.87816 4.34103 9.37992 4.09427 8.84319 4.02143C8.30646 3.94859 7.76068 4.05365 7.28908 4.3206C6.81747 4.58754 6.44592 5.00173 6.23106 5.5L5.89779 6.262L5.08953 6.073C4.90402 6.02699 4.71385 6.0025 4.52276 6C3.86115 6 3.22664 6.2634 2.75881 6.73224C2.29098 7.20108 2.02815 7.83696 2.02815 8.5C2.02815 9.16304 2.29098 9.79893 2.75881 10.2678C3.22664 10.7366 3.86115 11 4.52276 11H7.01736V12H4.52276C4.02766 12.0043 3.53732 11.903 3.08426 11.7029C2.63119 11.5028 2.22576 11.2084 1.89485 10.8394C1.56394 10.4703 1.31512 10.0349 1.16489 9.56211C1.01466 9.08932 0.966462 8.58992 1.02348 8.09704C1.08051 7.60416 1.24145 7.12906 1.49564 6.70326C1.74982 6.27745 2.09145 5.91068 2.49784 5.62727C2.90424 5.34385 3.36613 5.15027 3.85286 5.05937C4.33959 4.96847 4.84005 4.98232 5.32103 5.1C5.6243 4.40501 6.14531 3.82799 6.80514 3.45635C7.46498 3.08472 8.2277 2.9387 8.97777 3.04044C9.72783 3.14217 10.4244 3.4861 10.9619 4.02014C11.4994 4.55418 11.8487 5.24923 11.9567 6ZM10.293 9.85348L8.97903 8.53944L8.97903 13.9749H7.98517L7.98517 8.57568L6.70735 9.85347L6.00024 9.14636L8.14668 6.99998H8.85379L11.0002 9.14637L10.293 9.85348Z" fill="#424242"/>
</svg>

<svg viewBox="0 0 16 16" fill="none" xmlns="http://www.w3.org/2000/svg" height="1em" width="1em">
  <path fill-rule="evenodd" clip-rule="evenodd" d="M11.957 6h.05a2.99 2.99 0 0 1 2.116.879 3.003 3.003 0 0 1 0 4.242 2.99 2.99 0 0 1-2.116.879H10.01v-1h1.996a2.002 2.002 0 0 0 0-4h-.914l-.124-.857a2.49 2.49 0 0 0-2.126-2.122A2.478 2.478 0 0 0 6.231 5.5l-.333.762-.808-.189A2.49 2.49 0 0 0 4.523 6a2.49 2.49 0 0 0-1.764.732A2.503 2.503 0 0 0 4.523 11h2.494v1H4.523a3.485 3.485 0 0 1-2.628-1.16 3.502 3.502 0 0 1 1.958-5.78 3.461 3.461 0 0 1 1.468.04 3.475 3.475 0 0 1 5.64-1.08c.538.534.888 1.23.996 1.98Zm-1.664 3.853L8.979 8.54v5.436h-.994v-5.4L6.707 9.854 6 9.146 8.147 7h.707L11 9.146l-.707.707Z" fill="#424242"/>
</svg>
